img/offer/icon4.svg

<svg width="68" height="67" viewBox="0 0 68 67" fill="none" xmlns="http://www.w3.org/2000/svg">
<path fill-rule="evenodd" clip-rule="evenodd" d="M43.8192 0.204361C43.346 0.326837 42.661 0.596417 42.297 0.803514C41.4906 1.26238 18.778 23.644 18.4728 24.2805C18.3272 24.5842 18.2725 25.1452 18.2725 26.3359V27.9737L16.4525 28.019C14.8378 28.0592 14.5877 28.0964 14.2354 28.3485C14.017 28.5047 10.9729 31.4815 7.47092 34.9635C1.75825 40.6436 1.05989 41.3834 0.678673 42.1593C-0.183826 43.9144 -0.186473 45.8846 0.671525 47.6093C1.02388 48.3177 1.55414 48.9299 3.60529 50.9964C4.98217 52.3838 6.3192 53.6176 6.57639 53.7383C7.17164 54.0179 7.51023 53.9308 8.37908 53.2745C10.4788 51.6889 13.2131 52.2963 14.4646 54.6265C14.7054 55.0747 14.7617 55.3904 14.7614 56.2929C14.7611 57.2442 14.7099 57.5029 14.4093 58.0696C14.2158 58.4342 13.9542 58.8174 13.8281 58.921C13.4887 59.1995 13.2573 59.8415 13.3353 60.2882C13.3868 60.5836 14.0658 61.3322 16.0698 63.3028C18.2634 65.4598 18.8883 65.9991 19.5962 66.3468C21.3622 67.2138 23.3518 67.2179 25.1556 66.3582C25.9257 65.991 26.6871 65.287 32.4134 59.6468C35.9319 56.1812 38.9399 53.1688 39.0979 52.9527C39.3525 52.604 39.3901 52.3565 39.4308 50.7586L39.4766 48.9574H41.1227C42.2345 48.9574 42.9071 48.8984 43.1947 48.7755C43.4323 48.6741 45.444 46.7764 47.7424 44.4855C50.8939 41.3445 51.8852 40.2795 51.9534 39.9614C52.1392 39.0955 51.2696 38.235 50.3948 38.4189C50.0735 38.4865 49.0359 39.4315 45.9985 42.4225L42.0228 46.3376H39.8002H37.5776L37.1907 46.7205L36.8038 47.1034V49.3081V51.5128L30.5495 57.689C27.1096 61.0859 24.0867 63.9728 23.8319 64.1045C23.1906 64.4356 21.5605 64.4355 20.9199 64.1041C20.6651 63.9723 19.5523 62.9761 18.4471 61.8904L16.4377 59.9164L16.7605 59.2858C18.5652 55.7614 16.8239 51.4782 13.0333 50.1184C11.4665 49.5562 9.05428 49.7579 7.70362 50.5639L7.26059 50.8283L5.27853 48.8777C4.18836 47.8048 3.16795 46.6913 3.0111 46.4031C2.63213 45.7075 2.60844 44.1349 2.96649 43.4558C3.09952 43.2036 6.01674 40.2122 9.44926 36.808L15.6903 30.6187H17.9182H20.146L20.533 30.2358L20.9199 29.8529V27.6484V25.444L32.2041 14.2898C38.4105 8.155 43.6968 3.02801 43.9516 2.89649C44.6379 2.54216 46.2271 2.56574 46.9298 2.94063C47.221 3.09586 48.3403 4.09964 49.417 5.17128L51.3747 7.11938L50.973 7.96886C50.2271 9.54652 50.1335 11.2334 50.7015 12.8671C51.9924 16.5802 56.391 18.3309 59.9478 16.5472L60.585 16.2277L62.5798 18.2163C63.6768 19.3099 64.6835 20.4112 64.8166 20.6633C65.1527 21.2996 65.1518 22.9117 64.815 23.5451C64.6811 23.7973 63.0674 25.5067 61.2292 27.3439C59.0715 29.5003 57.8561 30.8115 57.8 31.0433C57.5716 31.9882 58.5639 32.8907 59.4964 32.5862C59.7899 32.4904 61.0125 31.3623 63.301 29.0757C66.1767 26.2026 66.7347 25.5811 67.0909 24.8551C67.9597 23.0846 67.9599 21.126 67.0917 19.3534C66.7423 18.6401 66.2437 18.0743 64.0162 15.8644C62.0252 13.8889 61.2581 13.2094 60.9607 13.1582C60.5096 13.0804 59.861 13.309 59.5792 13.6452C59.4744 13.7701 59.0873 14.0289 58.7188 14.2204C58.1462 14.5179 57.8847 14.5686 56.9235 14.5688C56.0115 14.5691 55.6925 14.5134 55.2395 14.2752C54.3776 13.8218 53.7901 13.2453 53.4131 12.4827C52.7087 11.0579 52.8796 9.48613 53.8743 8.2408C54.531 7.41857 54.626 7.06096 54.3439 6.47268C54.0247 5.80672 49.2016 1.16177 48.3743 0.723478C46.9976 -0.00601116 45.356 -0.193067 43.8192 0.204361ZM39.5537 17.3308C39.1118 17.5682 38.9217 17.8992 38.9217 18.4315C38.9217 18.6545 39.9034 22.3252 41.1033 26.589C43.5198 35.1756 43.4494 35.001 44.4946 35.001C44.9398 35.001 45.1066 34.9245 45.4211 34.576C45.6321 34.3425 45.8047 34.011 45.8047 33.8394C45.8047 33.3654 41.4648 18.0402 41.2304 17.686C40.8705 17.1426 40.1776 16.9957 39.5537 17.3308ZM48.7819 21.1527C47.4139 21.6374 46.4406 22.76 46.1794 24.1548C45.6195 27.1437 48.5593 29.5745 51.4426 28.507C52.3686 28.1642 53.0478 27.5717 53.5564 26.6633C53.9017 26.0464 53.9451 25.8437 53.9437 24.8551C53.9419 23.6325 53.7301 23.0662 52.9426 22.1786C52.02 21.1387 50.134 20.6736 48.7819 21.1527ZM33.2809 21.6611C32.9813 21.7663 32.4896 22.0613 32.1879 22.3167C30.2161 23.9871 30.3206 26.9149 32.4082 28.4822C33.8056 29.5312 35.9805 29.4202 37.4055 28.2272C37.6273 28.0414 37.9846 27.5752 38.1997 27.191C38.5517 26.5621 38.5908 26.3748 38.5902 25.3135C38.5898 24.4093 38.5317 24.0277 38.3405 23.6761C37.8553 22.7838 37.3204 22.2494 36.5131 21.8501C35.8269 21.5109 35.5585 21.4509 34.764 21.4596C34.248 21.4653 33.5804 21.556 33.2809 21.6611ZM50.6831 23.7318C51.3362 24.066 51.5726 25.0517 51.1296 25.5929C50.5821 26.2618 49.8414 26.3363 49.2183 25.7854C48.863 25.4712 48.7889 25.3109 48.7889 24.8551C48.7889 24.3992 48.863 24.2389 49.2183 23.9248C49.6918 23.506 50.1293 23.4483 50.6831 23.7318ZM35.6669 24.4722C36.1336 25.021 36.1242 25.6409 35.6411 26.176C35.0052 26.8803 33.9135 26.6927 33.5431 25.8158C33.3896 25.4519 33.3802 25.2638 33.4982 24.9097C33.6923 24.3281 34.084 24.0691 34.7699 24.0691C35.2264 24.0691 35.3847 24.1402 35.6669 24.4722ZM22.9155 32.2139C22.1014 32.7605 22.0581 33.5261 22.7946 34.3562C23.6091 35.2744 24.3646 35.4309 25.0511 34.8237C25.4036 34.5123 25.4805 34.3477 25.4805 33.9055C25.4805 33.4337 25.3985 33.2856 24.8216 32.7158C24.0077 31.9117 23.5464 31.7903 22.9155 32.2139ZM53.9632 34.6317C53.6963 34.8959 53.6143 35.1072 53.6143 35.5308C53.6143 35.9545 53.6963 36.1658 53.9632 36.43C54.2302 36.6942 54.4437 36.7753 54.8718 36.7753C55.2999 36.7753 55.5134 36.6942 55.7804 36.43C56.0474 36.1658 56.1293 35.9545 56.1293 35.5308C56.1293 35.1072 56.0474 34.8959 55.7804 34.6317C55.5134 34.3675 55.2999 34.2864 54.8718 34.2864C54.4437 34.2864 54.2302 34.3675 53.9632 34.6317ZM28.0676 36.8629C27.6683 37.0171 27.2756 37.4825 27.1976 37.8937C27.0938 38.4413 27.3547 38.9324 28.1207 39.6311C28.5953 40.0639 28.8246 40.181 29.1984 40.181C29.8118 40.181 30.1348 40.0031 30.3827 39.5287C30.7429 38.8393 30.6445 38.5149 29.8215 37.6792C29.0744 36.9207 28.5501 36.6766 28.0676 36.8629ZM19.2653 38.1047C19.1197 38.183 17.9136 39.3153 16.5849 40.6209C14.0211 43.1402 13.8281 43.4266 14.1596 44.219C14.2438 44.4202 14.4931 44.6903 14.7136 44.8192C15.492 45.2742 15.7373 45.116 18.5092 42.3702C20.6853 40.2146 21.0714 39.7727 21.1389 39.3609C21.2091 38.9332 21.1647 38.8253 20.7514 38.4162C20.2603 37.9302 19.7774 37.8289 19.2653 38.1047ZM32.6077 41.9498C32.2009 42.2318 31.9938 42.9279 32.175 43.4042C32.3472 43.8572 33.1546 44.7138 33.6535 44.9729C34.5852 45.4571 35.6125 44.824 35.6125 43.7657C35.6125 43.5365 35.3592 43.1719 34.7973 42.593C34.0538 41.8268 33.9342 41.7529 33.4369 41.7529C33.1371 41.7529 32.7639 41.8415 32.6077 41.9498ZM23.2363 42.2623C22.5286 42.7017 18.2986 47.0338 18.202 47.4183C17.9497 48.4218 18.8135 49.2768 19.8278 49.0272C20.2314 48.9281 24.7842 44.5462 25.0997 43.9536C25.3467 43.4895 25.3375 43.1207 25.0676 42.6685C24.6711 42.0044 23.9201 41.8379 23.2363 42.2623ZM27.6705 46.1659C27.5613 46.2043 26.3254 47.3631 24.9239 48.7414C22.1538 51.4657 21.9937 51.7079 22.4543 52.4794C22.5845 52.6976 22.8574 52.9443 23.0608 53.0276C23.8612 53.3557 24.1509 53.1646 26.6982 50.6276C28.0183 49.3127 29.1643 48.1082 29.2448 47.9509C29.5099 47.433 29.4161 46.9909 28.9413 46.521C28.5119 46.0961 28.1546 45.9962 27.6705 46.1659Z" fill="url(#paint0_linear_1924_5717)"/>
<defs>
<linearGradient id="paint0_linear_1924_5717" x1="0.0299072" y1="0" x2="68.3625" y2="69.3981" gradientUnits="userSpaceOnUse">
<stop stop-color="#0ABD92"/>
<stop offset="1" stop-color="#009DB8"/>
</linearGradient>
</defs>
</svg>

<svg width="68" height="67" fill="none" xmlns="http://www.w3.org/2000/svg"><path fill-rule="evenodd" clip-rule="evenodd" d="M43.82.204c-.474.123-1.159.392-1.523.6-.806.458-23.519 22.84-23.824 23.477-.146.303-.2.864-.2 2.055v1.638l-1.82.045c-1.615.04-1.865.077-2.218.33-.218.156-3.262 3.133-6.764 6.615-5.713 5.68-6.411 6.42-6.792 7.195-.863 1.755-.865 3.726-.007 5.45.352.709.882 1.32 2.933 3.387 1.377 1.388 2.714 2.622 2.971 2.742.596.28.934.193 1.803-.463 2.1-1.586 4.834-.979 6.086 1.352.24.448.297.763.296 1.666 0 .951-.051 1.21-.352 1.777-.193.364-.455.747-.58.851-.34.279-.572.92-.494 1.367.052.296.73 1.044 2.735 3.015 2.193 2.157 2.818 2.696 3.526 3.044 1.766.867 3.756.87 5.56.011.77-.367 1.531-1.071 7.257-6.711 3.519-3.466 6.527-6.478 6.685-6.694.255-.349.292-.597.333-2.194l.046-1.802h1.646c1.111 0 1.784-.059 2.072-.181.237-.102 2.249-2 4.547-4.29 3.152-3.142 4.143-4.206 4.211-4.525.186-.865-.683-1.726-1.558-1.542-.322.068-1.36 1.013-4.397 4.004l-3.975 3.915h-4.445l-.387.383-.387.382v4.41l-6.255 6.176c-3.44 3.397-6.462 6.284-6.717 6.416-.641.33-2.271.33-2.912 0-.255-.133-1.368-1.129-2.473-2.215l-2.01-1.974.323-.63c1.805-3.525.064-7.808-3.727-9.168-1.566-.562-3.979-.36-5.33.446l-.442.264-1.982-1.95c-1.09-1.073-2.111-2.187-2.268-2.475-.379-.695-.403-2.268-.045-2.947.134-.252 3.05-3.244 6.483-6.648l6.241-6.19h4.456l.387-.382.387-.383v-4.409L32.204 14.29C38.41 8.155 43.697 3.028 43.952 2.896c.686-.354 2.275-.33 2.978.045.291.155 1.41 1.159 2.487 2.23l1.958 1.948-.402.85c-.746 1.578-.84 3.264-.271 4.898 1.29 3.713 5.689 5.464 9.246 3.68l.637-.32 1.995 1.99c1.097 1.093 2.103 2.194 2.237 2.446.336.637.335 2.249-.002 2.882-.134.252-1.748 1.962-3.586 3.799-2.157 2.156-3.373 3.467-3.429 3.7-.228.944.764 1.847 1.696 1.542.294-.096 1.517-1.224 3.805-3.51 2.876-2.873 3.434-3.495 3.79-4.22.869-1.771.869-3.73 0-5.503-.349-.713-.847-1.279-3.075-3.489-1.99-1.975-2.758-2.655-3.055-2.706-.451-.078-1.1.151-1.382.487-.105.125-.492.384-.86.575-.573.298-.834.349-1.796.349-.912 0-1.23-.056-1.684-.294-.861-.453-1.449-1.03-1.826-1.792-.704-1.425-.533-2.997.461-4.242.657-.822.752-1.18.47-1.768-.32-.666-5.142-5.311-5.97-5.75A6.37 6.37 0 0043.82.204zm-4.266 17.127c-.442.237-.632.568-.632 1.1 0 .223.981 3.894 2.181 8.158 2.417 8.587 2.346 8.412 3.392 8.412.445 0 .612-.076.926-.425.211-.233.384-.565.384-.737 0-.474-4.34-15.799-4.575-16.153-.36-.543-1.052-.69-1.676-.355zm9.228 3.822c-1.368.484-2.341 1.607-2.603 3.002-.56 2.989 2.38 5.42 5.264 4.352.926-.343 1.605-.935 2.113-1.844.346-.617.39-.82.388-1.808-.002-1.223-.214-1.789-1.001-2.676-.923-1.04-2.809-1.505-4.161-1.026zm-15.501.508c-.3.105-.791.4-1.093.656-1.972 1.67-1.867 4.598.22 6.165 1.398 1.05 3.572.938 4.998-.255.221-.186.579-.652.794-1.036.352-.629.39-.816.39-1.877 0-.905-.058-1.286-.25-1.638-.485-.892-1.02-1.427-1.827-1.826-.686-.34-.954-.4-1.749-.39-.516.005-1.184.096-1.483.201zm17.402 2.07c.653.335.89 1.32.447 1.862-.548.669-1.289.743-1.912.192-.355-.314-.43-.474-.43-.93 0-.456.075-.616.43-.93.474-.419.911-.477 1.465-.193zm-15.016.741c.467.549.457 1.169-.026 1.704-.636.704-1.727.517-2.098-.36-.153-.364-.163-.552-.045-.906.194-.582.586-.84 1.272-.84.456 0 .615.07.897.402zm-12.752 7.742c-.814.547-.857 1.312-.12 2.142.814.918 1.57 1.075 2.256.468.353-.312.43-.476.43-.918 0-.472-.083-.62-.66-1.19-.813-.804-1.275-.926-1.905-.502zm31.048 2.418c-.267.264-.349.475-.349.899 0 .424.082.635.35.899.266.264.48.345.908.345.428 0 .641-.08.908-.345.267-.264.35-.475.35-.9 0-.423-.083-.634-.35-.898-.267-.264-.48-.346-.908-.346-.428 0-.642.081-.909.346zm-25.895 2.23c-.4.155-.792.62-.87 1.032-.104.547.157 1.038.923 1.737.474.433.704.55 1.077.55.614 0 .937-.178 1.185-.652.36-.69.262-1.014-.561-1.85-.748-.758-1.272-1.002-1.754-.816zm-8.803 1.243c-.145.078-1.351 1.21-2.68 2.516-2.564 2.52-2.757 2.806-2.425 3.598.084.201.333.471.554.6.778.455 1.023.297 3.795-2.449 2.176-2.155 2.562-2.597 2.63-3.01.07-.427.026-.535-.388-.944-.49-.486-.974-.587-1.486-.311zm13.343 3.845c-.407.282-.614.978-.433 1.454.172.453.98 1.31 1.479 1.569.931.484 1.958-.149 1.958-1.207 0-.23-.253-.594-.815-1.173-.743-.766-.863-.84-1.36-.84-.3 0-.673.089-.83.197zm-9.372.312c-.707.44-4.937 4.772-5.034 5.156-.252 1.004.611 1.859 1.626 1.61.403-.1 4.956-4.482 5.272-5.074.247-.465.237-.833-.032-1.285-.397-.665-1.148-.831-1.832-.407zm4.434 3.904c-.109.038-1.345 1.197-2.746 2.575-2.77 2.725-2.93 2.967-2.47 3.738.13.219.403.465.607.549.8.328 1.09.137 3.637-2.4 1.32-1.315 2.466-2.52 2.547-2.677.265-.518.171-.96-.304-1.43-.43-.425-.786-.525-1.27-.355z" fill="url(#paint0_linear_1924_5717)"/><defs><linearGradient id="paint0_linear_1924_5717" x1=".03" y1="0" x2="68.362" y2="69.398" gradientUnits="userSpaceOnUse"><stop stop-color="#0ABD92"/><stop offset="1" stop-color="#009DB8"/></linearGradient></defs></svg>
